X: 27827
T: Mossy Banks, The
R: reel
M: 4/4
K: Gmajor
g2dB G3A|BGG2 AGEG|DEGA Bddg|edB/c/d e3f|
g2dB G3A|BGG2 AGEG|DEGAB2ge|1 dBBA EGG2:|2 dBBA EGGF||
G3B A2GE|DEGB AGEG|B3d e2ge|dBGA BAAF|
G3B A2GE|D2BG AGEG|B3d edge|1 dBAD BGGF:|2 dBAD BGB/c/d||
g2dg egde|g2bg agef|fgdg egdB|ADGA BGB/c/d|
g2dg egde|gab2 agef|1 g3a gfed|e/f/gaf g2gf:|2 gbb2gfed|fggf g3f||

